X: 10
T: HORNPIPE: Chief O'Neill's Favourite
C: C: Trad.; S: Various
C: Set Leaders: André, Sophie, Anton
Z: Anton Zille ed.; leprecawn at The Session
N: https://thesession.org/members/26966/sets/96711
R: Hornpipe
M: 4/4
L: 1/8
Q: 1/2=82
K: Dmaj
de|:"D"~f3g afge|"D"fdef "G"dcAG|"D"FDAD (3EFG AB|"C"=cAd"A"^c A2 de|
"D"fd (3efg afge|"D"fdef "G"dcAG|"D"FDAF "G"GBAG|1 "D"F2 D2 D2 de:|2 "D"(3FGF D2 D3E||
|:"F"=F2 FE =FGAB|"C"=cAdB cAGB|"D"Adde fded|"A"cAdc A2 de|
"D"~f3g afge|"D"fdef "G"dcAG|"D"FDAF "G"GBAG|1 "D"(3FGF D2 D2 DE:|2 "D"F2 D2 D2||

